public/dokumentasi/GEAR.svg

<svg width="448" height="448" viewBox="0 0 448 448" fill="none" xmlns="http://www.w3.org/2000/svg">
<g filter="url(#filter0_d_445_2663)">
<path d="M73.1341 312.137L64.8545 293.161L56.5864 274.238L79.3659 253.706C78.368 248.395 77.5781 243.214 76.9797 237.914L49.2036 224.949L53.8014 183.973L83.8579 177.491C85.4933 172.464 87.4595 167.581 89.6935 162.674L71.9939 137.512L96.5037 104.291L125.703 113.808C129.594 110.24 133.834 106.855 138.287 103.749L135.44 73.187L173.252 56.654L193.815 79.4779C194.239 79.3846 204.851 77.579 209.659 77.1275L222.542 49.2713L263.578 53.7958L269.999 83.9255C275.077 85.5967 279.996 87.5123 284.73 89.6949L310.04 71.9883L343.26 96.4983L333.722 125.754C337.271 129.735 340.621 133.896 343.682 138.219L374.314 135.48L389.978 171.339L368.071 193.857C369.141 199.148 369.893 204.427 370.374 209.698L398.353 222.516L393.723 263.657L363.56 270.081C361.963 275.091 360.042 280.024 357.791 284.892L375.526 310.004L350.978 343.242L321.809 333.769C317.773 337.378 313.704 340.699 309.3 343.761L312.072 374.39L293.138 382.605L274.238 390.898L253.724 367.948C248.44 369.166 243.105 369.977 237.845 370.43L224.907 398.345L183.861 393.72L177.446 363.658C172.424 362.008 167.422 360.06 162.623 357.836L137.495 375.613L104.216 351.048L113.606 321.8C110.222 317.851 106.858 313.684 103.657 309.307L73.1341 312.137ZM132.698 263.746C154.608 313.9 213.157 336.817 263.577 314.72C313.913 292.801 336.742 234.186 314.716 184.083C292.845 133.831 234.358 110.713 184.098 132.646C133.692 154.747 110.789 213.302 132.698 263.746Z" fill="url(#paint0_linear_445_2663)"/>
<g filter="url(#filter1_ii_445_2663)">
<path d="M73.1341 312.137L64.8545 293.161L56.5864 274.238L79.3659 253.706C78.368 248.395 77.5781 243.214 76.9797 237.913L49.2036 224.949L53.8014 183.973L83.8578 177.491C85.4932 172.464 87.4594 167.581 89.6935 162.674L71.9939 137.512L96.5037 104.291L125.703 113.808C129.594 110.24 133.834 106.855 138.287 103.749L135.44 73.187L173.252 56.654L193.815 79.4778C194.239 79.3846 204.851 77.579 209.659 77.1275L222.542 49.2712L263.578 53.7958L269.999 83.9254C275.077 85.5967 279.996 87.5123 284.73 89.6949L310.04 71.9883L343.26 96.4983L333.722 125.754C337.271 129.735 340.621 133.896 343.682 138.219L374.314 135.48L389.978 171.339L368.071 193.857C369.141 199.148 369.893 204.427 370.374 209.698L398.353 222.516L393.723 263.657L363.56 270.081C361.963 275.091 360.042 280.024 357.791 284.892L375.526 310.004L350.978 343.242L321.809 333.769C317.773 337.378 313.704 340.699 309.3 343.761L312.072 374.39L293.138 382.605L274.238 390.898L253.724 367.948C248.44 369.166 243.105 369.977 237.845 370.43L224.907 398.345L183.861 393.72L177.446 363.658C172.424 362.008 167.422 360.06 162.623 357.836L137.495 375.613L104.216 351.048L113.606 321.8C110.222 317.851 106.858 313.684 103.657 309.307L73.1341 312.137ZM132.698 263.746C154.608 313.9 213.157 336.817 263.577 314.72C313.913 292.801 336.742 234.186 314.716 184.083C292.845 133.831 234.358 110.713 184.098 132.646C133.691 154.747 110.789 213.302 132.698 263.746Z" stroke="url(#paint1_linear_445_2663)" stroke-width="16.1446" stroke-linejoin="round"/>
</g>
</g>
<defs>
<filter id="filter0_d_445_2663" x="36.5205" y="33.9282" width="406.434" height="406.36" filterUnits="userSpaceOnUse" color-interpolation-filters="sRGB">
<feFlood flood-opacity="0" result="BackgroundImageFix"/>
<feColorMatrix in="SourceAlpha" type="matrix" values="0 0 0 0 0 0 0 0 0 0 0 0 0 0 0 0 0 0 127 0" result="hardAlpha"/>
<feOffset dx="15.9596" dy="13.2997"/>
<feGaussianBlur stdDeviation="10.2851"/>
<feComposite in2="hardAlpha" operator="out"/>
<feColorMatrix type="matrix" values="0 0 0 0 0 0 0 0 0 0 0 0 0 0 0 0 0 0 0.25 0"/>
<feBlend mode="normal" in2="BackgroundImageFix" result="effect1_dropShadow_445_2663"/>
<feBlend mode="normal" in="SourceGraphic" in2="effect1_dropShadow_445_2663" result="shape"/>
</filter>
<filter id="filter1_ii_445_2663" x="41.1311" y="41.1987" width="365.294" height="365.219" filterUnits="userSpaceOnUse" color-interpolation-filters="sRGB">
<feFlood flood-opacity="0" result="BackgroundImageFix"/>
<feBlend mode="normal" in="SourceGraphic" in2="BackgroundImageFix" result="shape"/>
<feColorMatrix in="SourceAlpha" type="matrix" values="0 0 0 0 0 0 0 0 0 0 0 0 0 0 0 0 0 0 127 0" result="hardAlpha"/>
<feOffset dx="1.77329" dy="-9.7531"/>
<feComposite in2="hardAlpha" operator="arithmetic" k2="-1" k3="1"/>
<feColorMatrix type="matrix" values="0 0 0 0 0 0 0 0 0 0 0 0 0 0 0 0 0 0 0.25 0"/>
<feBlend mode="overlay" in2="shape" result="effect1_innerShadow_445_2663"/>
<feColorMatrix in="SourceAlpha" type="matrix" values="0 0 0 0 0 0 0 0 0 0 0 0 0 0 0 0 0 0 127 0" result="hardAlpha"/>
<feOffset dx="-1.77329" dy="9.7531"/>
<feComposite in2="hardAlpha" operator="arithmetic" k2="-1" k3="1"/>
<feColorMatrix type="matrix" values="0 0 0 0 1 0 0 0 0 1 0 0 0 0 1 0 0 0 0.25 0"/>
<feBlend mode="overlay" in2="effect1_innerShadow_445_2663" result="effect2_innerShadow_445_2663"/>
</filter>
<linearGradient id="paint0_linear_445_2663" x1="161.048" y1="384.835" x2="286.503" y2="62.7245" gradientUnits="userSpaceOnUse">
<stop stop-color="#FCF0D6"/>
<stop offset="1" stop-color="#FFC446"/>
</linearGradient>
<linearGradient id="paint1_linear_445_2663" x1="161.048" y1="384.835" x2="286.503" y2="62.7245" gradientUnits="userSpaceOnUse">
<stop stop-color="#FCF0D6"/>
<stop offset="1" stop-color="#FFC446"/>
</linearGradient>
</defs>
</svg>

<svg xmlns="http://www.w3.org/2000/svg" width="448" height="448" fill="none" viewBox="0 0 448 448"><g filter="url(#a)"><path fill="url(#b)" d="m73.13 312.14-8.28-18.98-8.26-18.92 22.78-20.53c-1-5.31-1.79-10.5-2.39-15.8L49.2 224.95l4.6-40.98 30.06-6.48c1.63-5.03 3.6-9.91 5.83-14.82l-17.7-25.16 24.51-33.22 29.2 9.52c3.89-3.57 8.13-6.95 12.59-10.06l-2.85-30.56 37.81-16.54 20.56 22.83c.43-.1 11.04-1.9 15.85-2.35l12.88-27.86 41.04 4.53L270 83.93c5.08 1.67 10 3.58 14.73 5.76l25.31-17.7 33.22 24.51-9.54 29.25c3.55 3.99 6.9 8.15 9.96 12.47l30.63-2.74 15.67 35.86-21.91 22.52a147 147 0 0 1 2.3 15.84l27.98 12.82-4.63 41.14-30.16 6.42c-1.6 5.01-3.52 9.94-5.77 14.81L375.53 310l-24.55 33.24-29.17-9.47c-4.04 3.61-8.11 6.93-12.51 9.99l2.77 30.63-18.93 8.22-18.9 8.29-20.52-22.95c-5.28 1.22-10.62 2.03-15.88 2.48l-12.93 27.92-41.05-4.63-6.41-30.06a138 138 0 0 1-14.83-5.82l-25.12 17.77-33.28-24.56 9.39-29.25c-3.39-3.95-6.75-8.12-9.95-12.49zm59.57-48.39c21.91 50.15 80.46 73.07 130.88 50.97 50.33-21.92 73.16-80.53 51.14-130.64-21.87-50.25-80.36-73.37-130.62-51.43-50.41 22.1-73.31 80.65-51.4 131.1"/><g filter="url(#c)"><path stroke="url(#d)" stroke-linejoin="round" stroke-width="16.14" d="m73.13 312.14-8.28-18.98-8.26-18.92 22.78-20.53c-1-5.31-1.79-10.5-2.39-15.8L49.2 224.95l4.6-40.98 30.06-6.48c1.63-5.03 3.6-9.91 5.83-14.82l-17.7-25.16 24.51-33.22 29.2 9.52c3.89-3.57 8.13-6.95 12.59-10.06l-2.85-30.56 37.81-16.54 20.56 22.83c.43-.1 11.04-1.9 15.85-2.35l12.88-27.86 41.04 4.53L270 83.93c5.08 1.67 10 3.58 14.73 5.76l25.31-17.7 33.22 24.51-9.54 29.25c3.55 3.99 6.9 8.15 9.96 12.47l30.63-2.74 15.67 35.86-21.91 22.52a147 147 0 0 1 2.3 15.84l27.98 12.82-4.63 41.14-30.16 6.42c-1.6 5.01-3.52 9.94-5.77 14.81L375.53 310l-24.55 33.24-29.17-9.47c-4.04 3.61-8.11 6.93-12.51 9.99l2.77 30.63-18.93 8.22-18.9 8.29-20.52-22.95c-5.28 1.22-10.62 2.03-15.88 2.48l-12.93 27.92-41.05-4.63-6.41-30.06a138 138 0 0 1-14.83-5.82l-25.12 17.77-33.28-24.56 9.39-29.25c-3.39-3.95-6.75-8.12-9.95-12.49zm59.57-48.39c21.91 50.15 80.46 73.07 130.88 50.97 50.33-21.92 73.16-80.53 51.14-130.64-21.87-50.25-80.36-73.37-130.62-51.43-50.41 22.1-73.31 80.65-51.4 131.1Z"/></g></g><defs><linearGradient id="b" x1="161.05" x2="286.5" y1="384.83" y2="62.72" gradientUnits="userSpaceOnUse"><stop stop-color="#fcf0d6"/><stop offset="1" stop-color="#ffc446"/></linearGradient><linearGradient id="d" x1="161.05" x2="286.5" y1="384.83" y2="62.72" gradientUnits="userSpaceOnUse"><stop stop-color="#fcf0d6"/><stop offset="1" stop-color="#ffc446"/></linearGradient><filter id="a" width="406.43" height="406.36" x="36.52" y="33.93" color-interpolation-filters="sRGB" filterUnits="userSpaceOnUse"><feFlood flood-opacity="0" result="BackgroundImageFix"/><feColorMatrix in="SourceAlpha" result="hardAlpha" values="0 0 0 0 0 0 0 0 0 0 0 0 0 0 0 0 0 0 127 0"/><feOffset dx="15.96" dy="13.3"/><feGaussianBlur stdDeviation="10.29"/><feComposite in2="hardAlpha" operator="out"/><feColorMatrix values="0 0 0 0 0 0 0 0 0 0 0 0 0 0 0 0 0 0 0.25 0"/><feBlend in2="BackgroundImageFix" result="effect1_dropShadow_445_2663"/><feBlend in="SourceGraphic" in2="effect1_dropShadow_445_2663" result="shape"/></filter><filter id="c" width="365.29" height="365.22" x="41.13" y="41.2" color-interpolation-filters="sRGB" filterUnits="userSpaceOnUse"><feFlood flood-opacity="0" result="BackgroundImageFix"/><feBlend in="SourceGraphic" in2="BackgroundImageFix" result="shape"/><feColorMatrix in="SourceAlpha" result="hardAlpha" values="0 0 0 0 0 0 0 0 0 0 0 0 0 0 0 0 0 0 127 0"/><feOffset dx="1.77" dy="-9.75"/><feComposite in2="hardAlpha" k2="-1" k3="1" operator="arithmetic"/><feColorMatrix values="0 0 0 0 0 0 0 0 0 0 0 0 0 0 0 0 0 0 0.25 0"/><feBlend in2="shape" mode="overlay" result="effect1_innerShadow_445_2663"/><feColorMatrix in="SourceAlpha" result="hardAlpha" values="0 0 0 0 0 0 0 0 0 0 0 0 0 0 0 0 0 0 127 0"/><feOffset dx="-1.77" dy="9.75"/><feComposite in2="hardAlpha" k2="-1" k3="1" operator="arithmetic"/><feColorMatrix values="0 0 0 0 1 0 0 0 0 1 0 0 0 0 1 0 0 0 0.25 0"/><feBlend in2="effect1_innerShadow_445_2663" mode="overlay" result="effect2_innerShadow_445_2663"/></filter></defs></svg>
